!!!COM:	Bach, Johann Sebastian
!!!OMV:	O Gott, du frommer Gott
!!!OTL:	O Gott, du frommer Gott
**kern	**fb	**kern	**kern	**kern	**kern	**kern	**kern	**kern	**kern	**kern
*part10	*part10	*part9	*part8	*part7	*part6	*part5	*part4	*part3	*part2	*part1
*staff10	*	*staff9	*staff8	*staff7	*staff6	*staff5	*staff4	*staff3	*staff2	*staff1
*I"Continuo	*	*I"Voice	*I"Voice	*I"Voice	*I"Voice	*I"Viola	*I"Violin	*I"Violin	*I"Oboe	*I"Clarino
*I'Cont.	*	*I'V	*I'V	*I'V	*I'V	*I'Vla.	*I'Vln.	*I'Vln.	*I'Ob.	*I'Clar.
*clefF4	*	*clefF4	*clefGv2	*clefG2	*clefG2	*clefC3	*clefG2	*clefG2	*clefG2	*clefG2
*Trd0c0	*	*	*	*	*	*	*	*	*	*
*k[b-]	*	*k[b-]	*k[b-]	*k[b-]	*k[b-]	*k[b-]	*k[b-]	*k[b-]	*k[b-]	*k[b-]
*M4/4	*	*M4/4	*M4/4	*M4/4	*M4/4	*M4/4	*M4/4	*M4/4	*M4/4	*M4/4
8AAL	#	4AA	4c#X	8e	4a	4r	4r	4r	4r	4a
8AAJ	.	.	.	16fLL	.	.	.	.	.	.
.	.	.	.	16gJJ	.	.	.	.	.	.
=2	=2	=2	=2	=2	=2	=2	=2	=2	=2	=2
8DL	.	8DL	4d	4f	4a	1r	1r	1r	1r	4a
8C	.	8CnJ	.	.	.	.	.	.	.	.
8BB-	5	4BB-	8dL	4f	8b-	.	.	.	.	8b-
8GGJ	.	.	8B-J	.	16ccLL	.	.	.	.	16ccLL
.	.	.	.	.	16ddJJ	.	.	.	.	16ddJJ
8CL	6 4	4C	8A	8f	4cc	.	.	.	.	4cc
8BB-	.	.	16GLL	16eLL	.	.	.	.	.	.
.	.	.	16FJJ	16dJJ	.	.	.	.	.	.
8C	5 3	4C	4G	4e	16b-LL	.	.	.	.	4b-
.	.	.	.	.	16aJ	.	.	.	.	.
8CCJ	.	.	.	.	8b-J	.	.	.	.	.
=3	=3	=3	=3	=3	=3	=3	=3	=3	=3	=3
4FF	.	4FF	4c	4f	4a	8r	8r	8r	8r	8aL
.	.	.	.	.	.	8FL	16ALL	16cLL	16cLL	8A
.	.	.	.	.	.	.	16cJJ	16e-XJJ	16e-XJJ	.
4r	.	4r	4r	4r	4r	8A	16cLL	16e-LL	16e-LL	8A
.	.	.	.	.	.	.	16B-	16d	16d	.
.	.	.	.	.	.	8FJ	16B-	16d	16d	8AJ
.	.	.	.	.	.	.	16AJJ	16cJJ	16cJJ	.
4FF	6 4	2r	2r	2r	2r	8r	8B-L	16dLL	8dL	8AL
.	.	.	.	.	.	.	.	16B-	.	.
.	.	.	.	.	.	16FLL	16B-L	16d	16dL	8A
.	.	.	.	.	.	16AJJ	16cJJ	16fJJ	16fJJ	.
4r	.	.	.	.	.	16ALL	16cLL	16fLL	16fLL	8A
.	.	.	.	.	.	16G	16B-	16en	16en	.
.	.	.	.	.	.	16G	16B-	16e	16e	8AJ
.	.	.	.	.	.	16FJJ	16AJJ	16dJJ	16dJJ	.
=4	=4	=4	=4	=4	=4	=4	=4	=4	=4	=4
!!pagebreak:original
4FF	7 4 2	2.r	2.r	2.r	2r	16GLL	16B-LL	16eLL	8eL	8AL
.	.	.	.	.	.	16E	16G	16B-	.	.
.	.	.	.	.	.	16G	16B-	16e	16eL	8A
.	.	.	.	.	.	16B-JJ	16eJJ	16gJJ	16gJJ	.
4r	.	.	.	.	.	16B-LL	16eLL	16gLL	16gLL	8A
.	.	.	.	.	.	16A	16c	16f	16f	.
.	.	.	.	.	.	16A	16c	16f	16f	8AJ
.	.	.	.	.	.	16GJJ	16B-JJ	16eJJ	16eJJ	.
4FF	8 6 3	.	.	.	4r	16ALL	16cLL	16fLL	16fLL	4A
.	.	.	.	.	.	16F	16A	16c	16c	.
.	.	.	.	.	.	16A	16c	16f	16f	.
.	.	.	.	.	.	16cJJ	16fJJ	16aJJ	16aJJ	.
8FL	.	4F	8cL	8fL	8aL	8cL	8fL	16aLL	16aLL	8aL
.	.	.	.	.	.	.	.	16g	16g	.
8FJ	.	.	8dJ	8dJ	8b-J	8dJ	8dJ	16g	16g	8b-J
.	.	.	.	.	.	.	.	16fJJ	16fJJ	.
=5	=5	=5	=5	=5	=5	=5	=5	=5	=5	=5
8EL	6	4E	4e	8gL	4cc	8eL	8gL	16gLL	16gLL	4cc
.	.	.	.	.	.	.	.	16e	16e	.
8E	.	.	.	8e	.	8e	8e	16g	16g	.
.	.	.	.	.	.	.	.	16ccJJ	16ccJJ	.
8D	7	8DL	8AL	8f	4f	8A	8f	16ccLL	16ccLL	4f
.	.	.	.	.	.	.	.	16b-	16b-	.
8DJ	6	8dJ	8FJ	8dJ	.	8FJ	8dJ	16b-	16b-	.
.	.	.	.	.	.	.	.	16aJJ	16aJJ	.
8CL	7	8cL	4c	4e	4g	8cL	8eL	16b-LL	16b-LL	4g
.	.	.	.	.	.	.	.	16g	16g	.
8BB-	7	8B-J	.	.	.	8c	8e	16b-	16b-	.
.	6	.	.	.	.	.	.	16ggJJ	16ggJJ	.
8AA	6	8AL	4c	4f	4a	8c	8a	16ggLL	16ggLL	4a
.	.	.	.	.	.	.	.	16ff	16ff	.
8FFJ	.	8FJ	.	.	.	8cJ	8fJ	16ff	16ff	.
.	.	.	.	.	.	.	.	16eeJJ	16eeJJ	.
=6	=6	=6	=6	=6	=6	=6	=6	=6	=6	=6
!!pagebreak:original
8BB-L	6 5	8B-L	4B-	4d	2g	8B-L	8dL	16ffLL	16ffLL	2g
.	.	.	.	.	.	.	.	16dd	16dd	.
8GG	.	8GJ	.	.	.	8B-	8d	16ff	16ff	.
.	.	.	.	.	.	.	.	16bb-JJ	16bb-JJ	.
8C	.	8cL	4G	4e	.	8G	8e	16bb-LL	16bb-LL	.
.	.	.	.	.	.	.	.	16ee	16ee	.
8CCJ	.	8CJ	.	.	.	8GJ	8eJ	16ee	16ee	.
.	.	.	.	.	.	.	.	16ffJJ	16ffJJ	.
4FF	.	4F	4A	4c	4f	8AL	8cL	8ffL	8ffL	8fL
.	.	.	.	.	.	8F	16AL	16cL	16cL	8F
.	.	.	.	.	.	.	16cJJ	16e-XJJ	16e-XJJ	.
4r	.	4r	4r	4r	4r	8A	16cLL	16e-LL	16e-LL	8F
.	.	.	.	.	.	.	16B-	16d	16d	.
.	.	.	.	.	.	8FJ	16B-	16d	16d	8FJ
.	.	.	.	.	.	.	16AJJ	16cJJ	16cJJ	.
=7	=7	=7	=7	=7	=7	=7	=7	=7	=7	=7
4FF	6 4	1r	1r	1r	1r	8r	8B-L	16dLL	8dL	8FL
.	.	.	.	.	.	.	.	16B-	.	.
.	.	.	.	.	.	16FLL	16B-L	16d	16dL	8F
.	.	.	.	.	.	16AJJ	16cJJ	16fJJ	16fJJ	.
4r	.	.	.	.	.	16ALL	16cLL	16fLL	16fLL	8F
.	.	.	.	.	.	16G	16B-	16e	16e	.
.	.	.	.	.	.	16G	16B-	16e	16e	8FJ
.	.	.	.	.	.	16FJJ	16AJJ	16dJJ	16dJJ	.
4FF	7 4 2	.	.	.	.	16GLL	16B-LL	16eLL	8eL	8FL
.	.	.	.	.	.	16E	16G	16B-	.	.
.	.	.	.	.	.	16G	16B-	16e	16eL	8F
.	.	.	.	.	.	16B-JJ	16eJJ	16gJJ	16gJJ	.
4r	.	.	.	.	.	16B-LL	16eLL	16gLL	16gLL	8F
.	.	.	.	.	.	16A	16c	16f	16f	.
.	.	.	.	.	.	16A	16c	16f	16f	8FJ
.	.	.	.	.	.	16GJJ	16B-JJ	16eJJ	16eJJ	.
=8	=8	=8	=8	=8	=8	=8	=8	=8	=8	=8
!!pagebreak:original
8FFL	.	4r	4r	4r	4r	16ALL	16cLL	16fLL	16fLL	4F
.	.	.	.	.	.	16F	16A	16c	16c	.
8C	.	.	.	.	.	16A	16c	16f	16f	.
.	.	.	.	.	.	16cJJ	16fJJ	16aJJ	16aJJ	.
8F	.	8FL	4c	4f	4a	8cL	8fL	16aLL	16aLL	4a
.	.	.	.	.	.	.	.	16g	16g	.
8EJ	.	8EJ	.	.	.	8AJ	8cJ	16g	16g	.
.	.	.	.	.	.	.	.	16fJJ	16fJJ	.
8DL	.	8DL	4d	4f	4a	8AL	8dL	16fLL	16fLL	4a
.	.	.	.	.	.	.	.	16d	16d	.
8C	.	8CJ	.	.	.	8A	8d	16f	16f	.
.	.	.	.	.	.	.	.	16aJJ	16aJJ	.
8BB-	5	4BB-	8dL	8fL	8b-	8d	8d	16gLL	16gLL	8b-
.	.	.	.	.	.	.	.	16f	16f	.
8GGJ	.	.	8B-J	8gJ	16ccLL	8dJ	8B-J	16f	16f	16ccLL
.	.	.	.	.	16ddJJ	.	.	16eJJ	16eJJ	16ddJJ
=9	=9	=9	=9	=9	=9	=9	=9	=9	=9	=9
8CL	7 3	4C	8B-L	8eL	4cc	4G	4c	4e	4e	4cc
8BB-	7 5	.	8AJ	8f	.	.	.	.	.	.
8C	5 4	4C	8GL	8f	4b-	4r	4r	4r	4r	4b-
8CCJ	3	.	8cJ	8eJ	.	.	.	.	.	.
4FF	.	4FF	4c	4f	4a	8r	8r	8r	8r	8aL
.	.	.	.	.	.	16aLL	16ccLL	16ffLL	16ffLL	8A
.	.	.	.	.	.	16ccJJ	16ffJJ	16aaJJ	16aaJJ	.
4r	.	4r	4r	4r	4r	16ccLL	16ffLL	16aaLL	16aaLL	8A
.	.	.	.	.	.	16b-	16ee	16gg	16gg	.
.	.	.	.	.	.	16b-	16ee	16gg	16gg	8AJ
.	.	.	.	.	.	16aJJ	16ddJJ	16ffJJ	16ffJJ	.
=10	=10	=10	=10	=10	=10	=10	=10	=10	=10	=10
!!pagebreak:original
4C#X	6 5	1r	1r	1r	1r	16aLL	16eeLL	16ggLL	16ggLL	8AL
.	.	.	.	.	.	16g	16cc#X	16ee	16ee	.
.	.	.	.	.	.	16a	16cc#	16ee	16ee	8A
.	.	.	.	.	.	16cc#XJJ	16eeJJ	16ggJJ	16ggJJ	.
4r	.	.	.	.	.	16cc#LL	16eeLL	16ggLL	16ggLL	8A
.	.	.	.	.	.	16a	16dd	16ff	16ff	.
.	.	.	.	.	.	16a	16dd	16ff	16ff	8AJ
.	.	.	.	.	.	16gJJ	16cc#JJ	16eeJJ	16eeJJ	.
4D	.	.	.	.	.	16aLL	16ddLL	16ffLL	16ffLL	8AL
.	.	.	.	.	.	16f	16bn	16dd	16dd	.
.	.	.	.	.	.	16f	16b	16dd	16dd	8A
.	.	.	.	.	.	16aJJ	16ddJJ	16ffJJ	16ffJJ	.
4r	.	.	.	.	.	16aLL	16ddLL	16ffLL	16ffLL	8A
.	.	.	.	.	.	16g	16cc#	16ee	16ee	.
.	.	.	.	.	.	16g	16cc#	16ee	16ee	8AJ
.	.	.	.	.	.	16fJJ	16bJJ	16ddJJ	16ddJJ	.
=11	=11	=11	=11	=11	=11	=11	=11	=11	=11	=11
4AA	#	4r	4r	4r	4r	16fLL	16bnLL	16ddLL	16ddLL	4A
.	.	.	.	.	.	16e	16a	16cc#X	16cc#X	.
.	.	.	.	.	.	16e	16a	16cc#	16cc#	.
.	.	.	.	.	.	16c#XJJ	16gJJ	16eeJJ	16eeJJ	.
8DL	.	4D	8FL	4f	8aL	8AL	8fL	16eeLL	16eeLL	8aL
.	.	.	.	.	.	.	.	16dd	16dd	.
8DJ	.	.	8GJ	.	8b-J	16FL	8fJ	16dd	16dd	8b-J
.	.	.	.	.	.	16GJJ	.	16ccnJJ	16ccnJJ	.
8AAL	6	4AA	8AL	8fL	4cc	8AL	8fL	16ccLL	16ccLL	4cc
.	.	.	.	.	.	.	.	16a	16a	.
8AA	.	.	8GJ	8e-XJ	.	8GJ	8e-X	16a	16a	.
.	.	.	.	.	.	.	.	16ccJJ	16ccJJ	.
8BB-	.	4BB-	4F	4d	4f	4F	8d	16ccLL	16ccLL	4f
.	.	.	.	.	.	.	.	16b-	16b-	.
8BB-J	.	.	.	.	.	.	8dJ	16b-	16b-	.
.	.	.	.	.	.	.	.	16aJJ	16aJJ	.
=12	=12	=12	=12	=12	=12	=12	=12	=12	=12	=12
!!pagebreak:original
8B-L	6 4 2	8B-L	4c	4e	4g	4c	4e	4g	4g	4g
8A	.	8AJ	.	.	.	.	.	.	.	.
8G	7 4	8GL	4c	4f	8aL	4r	4r	4r	4r	8aL
8FJ	.	8FJ	.	.	8b-J	.	.	.	.	8b-J
8cL	4	4c	8c	4f	2g	2r	2r	2r	2r	2g
8c	.	.	16B-LL	.	.	.	.	.	.	.
.	.	.	16AJJ	.	.	.	.	.	.	.
8C	3	4C	8B-L	4e	.	.	.	.	.	.
8CJ	.	.	8GJ	.	.	.	.	.	.	.
=13	=13	=13	=13	=13	=13	=13	=13	=13	=13	=13
4FF	.	4F	4A	4c	4f	8r	8r	8r	8r	8fL
.	.	.	.	.	.	8FL	16ALL	16cLL	16cLL	8F
.	.	.	.	.	.	.	16cJJ	16e-XJJ	16e-XJJ	.
4r	.	4r	4r	4r	4r	8A	16cLL	16e-LL	16e-LL	8F
.	.	.	.	.	.	.	16B-	16d	16d	.
.	.	.	.	.	.	8FJ	16B-	16d	16d	8FJ
.	.	.	.	.	.	.	16AJJ	16cJJ	16cJJ	.
4FF	6 4	2r	2r	2r	2r	8r	8B-L	16dLL	8dL	8FL
.	.	.	.	.	.	.	.	16B-	.	.
.	.	.	.	.	.	16FLL	16B-L	16d	16dL	8F
.	.	.	.	.	.	16AJJ	16cJJ	16fJJ	16fJJ	.
4r	.	.	.	.	.	16ALL	16cLL	16fLL	16fLL	8F
.	.	.	.	.	.	16G	16B-	16en	16en	.
.	.	.	.	.	.	16G	16B-	16e	16e	8FJ
.	.	.	.	.	.	16FJJ	16AJJ	16dJJ	16dJJ	.
=14	=14	=14	=14	=14	=14	=14	=14	=14	=14	=14
!!pagebreak:original
4FF	7 4 2	2r	2r	2r	2r	16GLL	16B-LL	16eLL	8eL	8FL
.	.	.	.	.	.	16E	16G	16B-	.	.
.	.	.	.	.	.	16G	16B-	16e	16eL	8F
.	.	.	.	.	.	16B-JJ	16eJJ	16gJJ	16gJJ	.
4r	.	.	.	.	.	16B-LL	16eLL	16gLL	16gLL	8F
.	.	.	.	.	.	16A	16c	16f	16f	.
.	.	.	.	.	.	16A	16c	16f	16f	8FJ
.	.	.	.	.	.	16GJJ	16B-JJ	16eJJ	16eJJ	.
8FFL	8 5 3	4r	4r	4r	4r	16ALL	16cLL	16fLL	16fLL	8FL
.	.	.	.	.	.	16F	16A	16c	16c	.
8F	.	.	.	.	.	16A	16c	16f	16f	8FJ
.	.	.	.	.	.	16cJJ	16fJJ	16aJJ	16aJJ	.
8BBn	6 5	8BnL	8dL	4d	4g	8dL	8dL	16gLL	16gLL	4g
.	.	.	.	.	.	.	.	16f	16f	.
8GGJ	.	8GJ	8BnJ	.	.	8BnJ	8dJ	16f	16f	.
.	.	.	.	.	.	.	.	16eJJ	16eJJ	.
=15	=15	=15	=15	=15	=15	=15	=15	=15	=15	=15
8CL	.	4c	4c	4e	4g	4G	4c	4e	4e	4g
8c	.	.	.	.	.	.	.	.	.	.
8B-	7 5	8B-L	4c	[4f	4a	4r	4r	4r	4r	4a
8AJ	.	8AJ	.	.	.	.	.	.	.	.
8GL	7	4G	8d	8f]	4b-	2r	2r	2r	2r	4b-
8G	.	.	16cLL	16eLL	.	.	.	.	.	.
.	.	.	16B-JJ	16dJJ	.	.	.	.	.	.
8C	7	4C	8cL	8eL	8aL	.	.	.	.	8aL
8CJ	.	.	8cJ	8eJ	16b-L	.	.	.	.	16b-L
.	.	.	.	.	16ccJJ	.	.	.	.	16ccJJ
=16	=16	=16	=16	=16	=16	=16	=16	=16	=16	=16
4FF	.	4F	4c	4f	4a	8r	8r	8r	8r	8aL
.	.	.	.	.	.	16ALL	16fLL	16ccLL	16ccLL	8A
.	.	.	.	.	.	16cJJ	16aJJ	16ffJJ	16ffJJ	.
4r	.	4r	4r	4r	4r	16cLL	16aLL	16ffLL	16ffLL	8A
.	.	.	.	.	.	16B-	16g	16ee	16ee	.
.	.	.	.	.	.	16B-	16g	16ee	16ee	8AJ
.	.	.	.	.	.	16AJJ	16fJJ	16ddJJ	16ddJJ	.
4AA	7 3	2r	2r	2r	2r	8aL	16gLL	16eeLL	16eeLL	8AL
.	.	.	.	.	.	.	16e	16cc#X	16cc#X	.
.	.	.	.	.	.	8g	16e	16cc#	16cc#	8A
.	.	.	.	.	.	.	16gJJ	16eeJJ	16eeJJ	.
4r	.	.	.	.	.	8e	16gLL	16eeLL	16eeLL	8A
.	.	.	.	.	.	.	16f	16dd	16dd	.
.	.	.	.	.	.	8aJ	16f	16dd	16dd	8AJ
.	.	.	.	.	.	.	16eJJ	16cc#JJ	16cc#JJ	.
=17	=17	=17	=17	=17	=17	=17	=17	=17	=17	=17
!!pagebreak:original
4DD	.	2r	2r	2r	2r	16aLL	16fLL	16ddLL	16ddLL	8AL
.	.	.	.	.	.	16f	16d	16a	16a	.
.	.	.	.	.	.	16f	16d	16a	16a	8A
.	.	.	.	.	.	16aJJ	16fJJ	16ddJJ	16ddJJ	.
4r	.	.	.	.	.	8aL	16fLL	16ddLL	16ddLL	8A
.	.	.	.	.	.	.	16e-X	16cc	16cc	.
.	.	.	.	.	.	8AJ	16e-	16cc	16cc	8AJ
.	.	.	.	.	.	.	16dJJ	16b-JJ	16b-JJ	.
4FF#X	-r7 5	4r	4r	4r	4r	16aLL	16e-LL	16ccLL	16ccLL	8AL
.	.	.	.	.	.	16f#X	16c	16a	16a	.
.	.	.	.	.	.	16f#	16c	16a	16a	8AJ
.	.	.	.	.	.	16aJJ	16e-JJ	16ccJJ	16ccJJ	.
4r	.	4F#X	4c	4e-X	4a	16aLL	16e-LL	16ccLL	16ccLL	4a
.	.	.	.	.	.	16g	16d	16bn	16bn	.
.	.	.	.	.	.	16g	16d	16b	16b	.
.	.	.	.	.	.	16f#JJ	16cJJ	16aJJ	16aJJ	.
=18	=18	=18	=18	=18	=18	=18	=18	=18	=18	=18
8FFL	6 nr4 2	4F	4Bn	4d	4g	8gL	8dL	16bnLL	16bnLL	4g
.	.	.	.	.	.	.	.	16g	16g	.
8FJ	.	.	.	.	.	8Bn	8d	16g	16g	.
.	.	.	.	.	.	.	.	16ggJJ	16ggJJ	.
8E-XL	6	8E-X	4c	4g	8cc	8c	8g	16ggLL	16ggLL	8cc
.	.	.	.	.	.	.	.	16ff	16ff	.
16FL	.	16FLL	.	.	16ddLL	8cJ	8gJ	16ff	16ff	16ddLL
16GJJ	.	16GJJ	.	.	16ee-XJJ	.	.	16ee-XJJ	16ee-XJJ	16ee-XJJ
8A-XL	6 4 3	8A-X	8cL	8fL	4dd	8cL	8fL	16ffLL	16ffLL	4dd
.	.	.	.	.	.	.	.	16dd	16dd	.
16GL	.	16GLL	8fJ	8a-XJ	.	8f	8a-X	16dd	16dd	.
16FJJ	.	16FJJ	.	.	.	.	.	16ffJJ	16ffJJ	.
8GL	n	8GL	4d	8gL	8ccL	8d	8g	16ffLL	16ffLL	8ccL
.	.	.	.	.	.	.	.	16een	16een	.
8GGJ	.	8GGJ	.	8fJ	8bnJ	8dJ	8gJ	16ee	16ee	8bnJ
.	.	.	.	.	.	.	.	16ddJJ	16ddJJ	.
=19	=19	=19	=19	=19	=19	=19	=19	=19	=19	=19
!!pagebreak:original
4C	n	4C	4c	4en	4cc	8cL	8gL	8eeL	8eeL	8ccL
.	.	.	.	.	.	8c	16eL	16gL	16gL	8c
.	.	.	.	.	.	.	16gJJ	16b-JJ	16b-JJ	.
4r	.	4r	4r	4r	4r	8e	16gLL	16b-LL	16b-LL	8c
.	.	.	.	.	.	.	16f	16a	16a	.
.	.	.	.	.	.	8cJ	16f	16a	16a	8cJ
.	.	.	.	.	.	.	16eJJ	16gJJ	16gJJ	.
4C	6 4	2r	2r	2r	2r	8r	16fLL	16aLL	16aLL	8cL
.	.	.	.	.	.	.	16c	16f	16f	.
.	.	.	.	.	.	16cLL	16f	16a	16a	8c
.	.	.	.	.	.	16eJJ	16gJJ	16ccJJ	16ccJJ	.
4r	.	.	.	.	.	16eLL	16gLL	16ccLL	16ccLL	8c
.	.	.	.	.	.	16d	16f	16bn	16bn	.
.	.	.	.	.	.	16d	16f	16b	16b	8cJ
.	.	.	.	.	.	16cJJ	16eJJ	16aJJ	16aJJ	.
=20	=20	=20	=20	=20	=20	=20	=20	=20	=20	=20
4C	nr7 4 2	2.r	2.r	2.r	2r	16dLL	16fLL	16bnLL	16bnLL	8cL
.	.	.	.	.	.	16Bn	16d	16f	16f	.
.	.	.	.	.	.	16d	16f	16b	16b	8c
.	.	.	.	.	.	16fJJ	16bnJJ	16ddJJ	16ddJJ	.
4r	.	.	.	.	.	16fLL	16bLL	16ddLL	16ddLL	8c
.	.	.	.	.	.	16e	16g	16cc	16cc	.
.	.	.	.	.	.	16e	16g	16cc	16cc	8cJ
.	.	.	.	.	.	16dJJ	16fJJ	16bJJ	16bJJ	.
4C	8 5 3	.	.	.	4r	16eLL	16gLL	16ccLL	16ccLL	8cL
.	.	.	.	.	.	16c	16e	16g	16g	.
.	.	.	.	.	.	16e	16g	16cc	16cc	8cJ
.	.	.	.	.	.	16gJJ	16ccJJ	16eeJJ	16eeJJ	.
8cL	.	8cL	4en	4g	4cc	8gL	8ccL	16eeLL	16eeLL	4cc
.	.	.	.	.	.	.	.	16dd	16dd	.
8B-J	.	8B-J	.	.	.	8eJ	8gJ	16dd	16dd	.
.	.	.	.	.	.	.	.	16ccJJ	16ccJJ	.
=21	=21	=21	=21	=21	=21	=21	=21	=21	=21	=21
8AL	6	8AL	4c	4f	8ccL	4c	4a	4ff	4ff	8ccL
8G	.	8GJ	.	.	8b-J	.	.	.	.	8b-J
8F	.	8FL	4c	4f	4a	4r	4r	4r	4r	4a
8E-XJ	.	8E-XJ	.	.	.	.	.	.	.	.
8DL	6	8DL	4d	4f	4b-	2r	2r	2r	2r	4b-
8C	.	8CJ	.	.	.	.	.	.	.	.
8BB-	5 4	8BB-L	4c	4f	8cc	.	.	.	.	8cc
8AAJ	.	8AAJ	.	.	16ddLL	.	.	.	.	16ddLL
.	.	.	.	.	16ee-XJJ	.	.	.	.	16ee-XJJ
=22	=22	=22	=22	=22	=22	=22	=22	=22	=22	=22
!!pagebreak:original
4BB-	.	4BB-	4B-	4f	4dd	8r	8r	8r	8r	8ddL
.	.	.	.	.	.	8fL	16b-LL	16ddLL	16ddLL	8F
.	.	.	.	.	.	.	16ddJJ	16ffJJ	16ffJJ	.
4r	.	4r	4r	4r	4r	8b-	16ddLL	16ffLL	16ffLL	8F
.	.	.	.	.	.	.	16cc	16ee-X	16ee-X	.
.	.	.	.	.	.	8fJ	16cc	16ee-	16ee-	8FJ
.	.	.	.	.	.	.	16b-JJ	16ddJJ	16ddJJ	.
4AA	6 -r5	2r	2r	2r	2r	8r	16ccLL	16ee-LL	16ee-LL	8FL
.	.	.	.	.	.	.	16a	16cc	16cc	.
.	.	.	.	.	.	8fL	16a	16cc	16cc	8F
.	.	.	.	.	.	.	16ccJJ	16ee-JJ	16ee-JJ	.
4r	.	.	.	.	.	8a	16ccLL	16ee-LL	16ee-LL	8F
.	.	.	.	.	.	.	16b-	16dd	16dd	.
.	.	.	.	.	.	8fJ	16b-	16dd	16dd	8FJ
.	.	.	.	.	.	.	16aJJ	16ccJJ	16ccJJ	.
=23	=23	=23	=23	=23	=23	=23	=23	=23	=23	=23
4BB-	.	1r	1r	1r	1r	8r	16b-LL	16ddLL	16ddLL	8FL
.	.	.	.	.	.	.	16f	16b-	16b-	.
.	.	.	.	.	.	16dLL	16f	16b-	16b-	8F
.	.	.	.	.	.	16fJJ	16b-JJ	16ddJJ	16ddJJ	.
4r	.	.	.	.	.	16fLL	16b-LL	16ddLL	16ddLL	8F
.	.	.	.	.	.	16e-X	16a	16cc	16cc	.
.	.	.	.	.	.	16e-	16a	16cc	16cc	8FJ
.	.	.	.	.	.	16dJJ	16gJJ	16b-JJ	16b-JJ	.
4FF	.	.	.	.	.	8cL	16aLL	16ccLL	16ccLL	8FL
.	.	.	.	.	.	.	16f	16a	16a	.
.	.	.	.	.	.	8c	16f	16a	16a	16AL
.	.	.	.	.	.	.	16aJJ	16ccJJ	16ccJJ	16FJJ
4r	.	.	.	.	.	8f	16aLL	16ccLL	16ccLL	8cL
.	.	.	.	.	.	.	16g	16b-	16b-	.
.	.	.	.	.	.	8cJ	16g	16b-	16b-	8cJ
.	.	.	.	.	.	.	16fJJ	16aJJ	16aJJ	.
=24	=24	=24	=24	=24	=24	=24	=24	=24	=24	=24
!!pagebreak:original
8EEL	6 5	4r	4r	4r	4r	8r	16gLL	16b-LL	16b-LL	8cL
.	.	.	.	.	.	.	16e	16g	16g	.
8GG	.	.	.	.	.	8gL	16e	16g	16g	8cJ
.	.	.	.	.	.	.	16gJJ	16b-JJ	16b-JJ	.
8CC	7	4C	4c	4en	4g	8e	16gLL	16b-LL	16b-LL	4g
.	.	.	.	.	.	.	16f	16a	16a	.
8CJ	.	.	.	.	.	8cJ	16f	16a	16a	.
.	.	.	.	.	.	.	16eJJ	16gJJ	16gJJ	.
8FL	.	8FL	4c	4f	4a	8cL	8fL	16aLL	16aLL	4a
.	.	.	.	.	.	.	.	16f	16f	.
8E	.	8EnJ	.	.	.	8c	8f	16f	16f	.
.	.	.	.	.	.	.	.	16ffJJ	16ffJJ	.
8D	.	8DL	4d	4f	4a	8d	8f	16ffLL	16ffLL	4a
.	.	.	.	.	.	.	.	16ee-X	16ee-X	.
8CJ	.	8CJ	.	.	.	8dJ	8fJ	16ee-	16ee-	.
.	.	.	.	.	.	.	.	16ddJJ	16ddJJ	.
=25	=25	=25	=25	=25	=25	=25	=25	=25	=25	=25
8BB-L	6 5	8BB-L	8dL	8fL	8gL	8dL	8fL	16ddLL	16ddLL	8gL
.	.	.	.	.	.	.	.	16b-	16b-	.
8GG	.	8BBnJ	16eL	16eL	16aL	16eL	16eL	16b-	16b-	16aL
.	.	.	16fJJ	16dJJ	16b-JJ	16fJJ	16dJJ	16ddJJ	16ddJJ	16b-JJ
8C	.	4C	8eL	8eL	4g	8eL	8eL	16ccLL	16ccLL	4g
.	.	.	.	.	.	.	.	16b-	16b-	.
8CCJ	.	.	8GJ	8eJ	.	8cJ	8eJ	16b-	16b-	.
.	.	.	.	.	.	.	.	16aJJ	16aJJ	.
4FF	.	[2F	4A	4f	[2f	8cL	8fL	8aL	8aL	8fL
.	.	.	.	.	.	8F	16AL	16cL	16cL	8F
.	.	.	.	.	.	.	16cJJ	16e-XJJ	16e-XJJ	.
4r	.	.	8r	8r	.	8A	16cLL	16e-LL	16e-LL	8F
.	.	.	.	.	.	.	16B-	16d	16d	.
.	.	.	8F	16fLL	.	8FJ	16B-	16d	16d	8FJ
.	.	.	.	16e-XJJ	.	.	16AJJ	16cJJ	16cJJ	.
=26	=26	=26	=26	=26	=26	=26	=26	=26	=26	=26
!!pagebreak:original
4FF	6 4	1F_	4B-	4d	1f_	8r	8B-L	16dLL	8dL	8FL
.	.	.	.	.	.	.	.	16B-	.	.
.	.	.	.	.	.	16FLL	16B-L	16d	16dL	8F
.	.	.	.	.	.	16AJJ	16cJJ	16fJJ	16fJJ	.
4r	.	.	4A	4c	.	16ALL	16cLL	16fLL	16fLL	8F
.	.	.	.	.	.	16G	16B-	16e	16e	.
.	.	.	.	.	.	16G	16B-	16e	16e	8FJ
.	.	.	.	.	.	16FJJ	16AJJ	16dJJ	16dJJ	.
4FF	7 4 2	.	4.G	4.B-	.	16GLL	16B-LL	16eLL	8eL	8FL
.	.	.	.	.	.	16E	16G	16B-	.	.
.	.	.	.	.	.	16G	16B-	16e	16eL	8F
.	.	.	.	.	.	16B-JJ	16eJJ	16gJJ	16gJJ	.
4r	.	.	.	.	.	16B-LL	16eLL	16gLL	16gLL	8F
.	.	.	.	.	.	16A	16c	16f	16f	.
.	.	.	8A	8c	.	16A	16c	16f	16f	8FJ
.	.	.	.	.	.	16GJJ	16B-JJ	16eJJ	16eJJ	.
=27	=27	=27	=27	=27	=27	=27	=27	=27	=27	=27
8FFL	8 5 3	4F]	4A	4c	4f]	8AL	8cL	8fL	8fL	8FL
8BB-	5	.	.	.	.	8B-	8d	16ddL	16ddL	16AL
.	.	.	.	.	.	.	.	16ccJJ	16ccJJ	16FJJ
8C	6 4	4r	4r	4r	4r	8G	8e	16b-LL	16b-LL	8cL
.	.	.	.	.	.	.	.	16a	16a	.
8CCJ	5 3	.	.	.	.	8GJ	8eJ	16g	16g	8cJ
.	.	.	.	.	.	.	.	16fJJ	16fJJ	.
2FF;	.	2r;	2r;	2r;	2r;	2A;	2c;	2f;	2f;	2A;
==	==	==	==	==	==	==	==	==	==	==
*-	*-	*-	*-	*-	*-	*-	*-	*-	*-	*-
!!!system-decoration: s1,s2,s3,s4,s5,s6,s7,s8,s9,s10
